icons/badge/info/shield.svg

<svg width="32" height="32" viewBox="0 0 32 32" xmlns="http://www.w3.org/2000/svg"><path fill-rule="evenodd" clip-rule="evenodd" d="M16.5193 1.1041C16.1792 1.01262 15.8208 1.01262 15.4807 1.1041L3.48066 4.33085C2.60713 4.56574 2 5.35769 2 6.26224V12C2 21.4849 8.33412 28.3497 15.7253 30.4615L16 30.54L16.2747 30.4615C23.6659 28.3497 30 21.4849 30 12V6.26224C30 5.35769 29.3929 4.56574 28.5193 4.33085L16.5193 1.1041ZM4 6.26224L16 3.03549L28 6.26224L28 12C28 20.3968 22.4904 26.4794 16 28.4573C9.50964 26.4794 4 20.3968 4 12L4 6.26224ZM13 20V22H19V20H17V15V14H16H14V16H15V20H13ZM17.5 11V8.00001H14.5V11H17.5Z"/></svg>

<svg viewBox="0 0 32 32" xmlns="http://www.w3.org/2000/svg"><path fill-rule="evenodd" d="M16.52 1.104a2 2 0 00-1.04 0l-12 3.227A2 2 0 002 6.262V12c0 9.485 6.334 16.35 13.725 18.462l.275.078.275-.078C23.665 28.35 30 21.485 30 12V6.262a2 2 0 00-1.48-1.931l-12-3.227zM4 6.262l12-3.227 12 3.227V12c0 8.397-5.51 14.48-12 16.457C9.51 26.48 4 20.397 4 12V6.262zM13 20v2h6v-2h-2v-6h-3v2h1v4h-2zm4.5-9V8h-3v3h3z"/></svg>
